X: 41727
T: Valsamanu
R: waltz
M: 3/4
K: Aminor
AB cd ea|g4 g2|~e3 e gf|e2 d4|
^cd de fe|d2 c4|BA ^GA Bc|1 ,3 BE ^F^G AB:|2 ,4 A6:|
|:AB cd ec|BA Bc dB|c2 BA Bc|B2 E3B|
AB cd ec|BA Bc dB|c2 BA Bc|1 B2 A3E:|2 B2 A2 A2||
[K: A]
|:ce a2 g2|e4 ef|ed cd ef|B6|
BA GA BG|BA GA BG|1 ed cd BG|cB AG AB:|2 ed cd Bc|A4 e2||
[K:Amin]
|:ae ea ee|f2 ed cB|c2 BA Bc|B2 E3[Be]|
[1,3 ae ea ee|f2 ed cB|c2 BA Bc|B2 A3e:|
[2,4 AB cd ec|BA Bc dB|c2 BA Bc|B2 A4:|

